X: 22686
T: Lalabee
R: reel
M: 4/4
K: Eminor
EFGA F2 DE-|E2 DE FG- G2|EFGA F2 DE-|E2 DE- E2 z B|
EFGA F2 DE-|E2 DE FG- G2|EFGA F2 DE-|[M:2 + 5/8] E2 DEFGA|
[M:4/4] B6- BA|[M:3/4] GA B G2 D|[M:4/4] B6- BA|GABG F4-|
F3 D A4-|[M:4 + 6/8] A3 G FGAF-FD|[M:5/4] A2 G2 F2 E3 D|[M:4/4] B6- BA|
[M:3/4] GA B G2 D|[M:4/4] B6- BA|GABG F4-|FD A2 G2 F2|E8||

